X:10
T:10. Ye Restless Thoughts
C:John Wilbye
%#Noindex
%%score [1 2 3]
L:1/4
M:4/4
I:linebreak $
%%transpose 7
K:Bb
V:1 treble nm="Treble I"
%%MIDI program 73
V:2 treble nm="Treble II"
%%MIDI program 73
V:3 bass+8 nm="Bass" octave=-1
%%MIDI program 73
V:1
 z2 d2 | B G d2 | z z2 g |$ e c g2 | z g e c | d2 e d- |$ d/c/ c2 =B | c4 | e3 d/c/ | d2 d2- |$ %10
w: Ye|rest- less thoughts,|ye|rest- less thoughts,|ye rest- less|thoughts that har-|- bour dis- con-|tent,|Cease your as-|saults, cease|
 d c/B/ A G | ^F B A A | =B2 z d | B G d2 |$ z z2 g | e c g2 | z g e c |$ d2 e d- | d/c/ c2 =B | %19
w: _ your as- saults and|let my heart la-|ment. Ye|rest- less thoughts,|ye|rest- less thoughts,|ye rest- less|thoughts that har-|- bour dis- con-|
 c4 | e3 d/c/ |$ d2 d2- | d c/B/ A G | ^F B A A | =B4 |$ z z2 d | d d c3/2 d/ | e d d c |$ %28
w: tent,|Cease your as-|saults, cease|_ your as- saults and|let my heart la-|ment.|And|let my tongue have|leave to tell my|
 d d>c B | A G ^F B | A G ^F2 |$ z G B c | d2 B e- | e d c c | d f f3/2 e/ |$ d d c2 | B2 A A | %37
w: grief, That  she may|pi- ty though not|grant re- lief,|that she may|pi- ty though|_ not grant re-|lief, that she may|pi- ty though|not grant re-|
 =B2 g2- | g f/=e/ d2- |$ d d d d | f3/2 e/ d d | B B c e | d4 |$ g3 f/=e/ | d3/2 =e/ f d | %45
w: lief. Pi-|- ty would help,|_ pi- ty would|help, a- las, what|love hath al- most|slain.|Pi- ty would|help, a- las, what|
 e3/2 d/ c c |$ d2 z d- | d c2 B | A B2 A- | A/G/ G2 ^F |$ G2 g2 | g f/=e/ d2- | d d d d | %53
w: love hath al- most|slain, And|_ salve the|wound that fes-|- ter'd this dis-|dain. Pi-|- ty would help,|_ pi- ty would|
 f3/2 e/ d d |$ B B c e | d4 | g3 f/=e/ |$ d3/2 =e/ f d | e3/2 d/ c c | d2 z d- |$ d c2 B | %61
w: help, a- las, what|love hath al- most|slain.|Pi- ty would|help, a- las, what|love hath al- most|slain, And|_ salve the|
 A B2 A- | A/G/ G2 ^F | G4- |$ G4 |] %65
w: wound that fes-|- ter'd this dis|\-dain.|_
V:2
 d2 B G | d2 z G- | G c2 =B |$ c3 d | e d c c | B3/2 A/ G F |$ E E D D | =E2 z2 | c3 =B/A/ | %9
w: Ye rest- less|thoughts, ye|_ rest- less|thoughts, ye|rest- less thoughts, ye|rest- less thoughts that|har- bour dis- con-|tent,|Cease your as-|
 =B2 _B2- |$ B A/G/ ^F B | A G G ^F | G d B G | d2 G2- |$ G c2 =B | c3 d | e d c c |$ B3/2 A/ G F | %18
w: saults, cease|_ your as- saults and|let my heart la-|ment. Ye rest- less|thoughts, ye|_ rest- less|thoughts, ye|rest- less thoughts, ye|rest- less thoughts that|
 E E D D | =E2 z2 | c3 =B/A/ |$ =B2 _B2- | B A/G/ ^F B | A G G ^F | G3 G |$ G G B3/2 B/ | %26
w: har- bour dis- con-|tent,|Cease your as-|saults, cease|_ your as- saults and|let my heart la-|ment. And|let my tongue have|
 A/G/ G2 ^F | G A B G |$ ^F2 z d- | d/c/ B A G | ^F B A A |$ G B3/2 A/ G | ^F2 G c- | c/B/ B2 A | %34
w: leave to tell, my|grief, to tell my|grief, That|_ she may pi- ty|though not grant re-|lief, that she may|pi- ty though|_ not grant re-|
 B d3/2 d/ c |$ B3/2 B/ G A- | A G2 ^F | G4 | B3 A/G/ |$ ^F3 A | A A B3/2 A/ | G G A/G/ G- | %42
w: lief, that she may|pi- ty though not|_ grant re-|lief.|Pi- ty would|help, pi-|ty would help, a-|las, what love hath al-|
 G ^F G2- |$ G2 B2- | B A/G/ A B | c/B/ B2 A |$ B d c B | A A G G | ^F d2 c- | c B A A |$ =B4 | %51
w: - most slain.|_ Pi-|- ty would help what|love hath al- most|slain, And salve the|wound, and salve the|wound that fes-|- ter'd this dis-|dain.|
 ^A3 =A/G/ | ^F3 A | A A B3/2 A/ |$ G G A/G/ G- | G ^F G2- | G2 B2- |$ B A/G/ A B | c/B/ B2 A | %59
w: Pi- ty would|help, pi-|ty would help, a-|las, what love hath al-|- most slain.|_ Pi-|- ty would help what|love hath al- most|
 B d c B |$ A A G G | ^F d2 c- | c B A A | =B4- |$ B4 |] %65
w: slain, And salve the|wound, and salve the|wound that fes-|- ter'd this dis|\-dain.|_
V:3
 z4 | z2 G2 | E C G2 |$ C C2 =B, | C2 C2 | G,2 G,2 |$ G,2 G,2 | C3 C | C C G,2- | G, G2 F/=E/ |$ %10
w: |Ye|rest- less thoughts|ye rest- less|thoughts that|har- bour|dis- con-|tent, Cease|your as- saults,|_ cease your as-|
 D2 D2 | D G, D D | G,4 | z2 z G |$ E C G2 | C C2 =B, | C2 C2 |$ G,2 G,2 | G,2 G,2 | C3 C | %20
w: saults and|let my heart la-|ment.|Ye|rest- less thoughts|ye rest- less|thoughts that|har- bour|dis- con-|tent, Cease|
 C C G,2- |$ G, G2 F/=E/ | D2 D2 | D G, D D | G,4 |$ z G, G, G, | B,2 A,2 | G, F, E, E, |$ %28
w: your as- saults,|_ cease your as-|saults and|let my heart la-|ment.|And let my|tongue have|leave to tell my|
 D,4 | D4 | D2 D2 |$ E2 E2 | D2 E2 | F2 F2 | B, B, F, F, |$ B,3/2 B,/ C C | %36
w: grief, |That |she may|pi- ty|though not|grant re-|lief, that she may|pi- ty though not|
 D2 D2 | G,4 | G3 F/=E/ |$ D4 | z D D D | E3/2 D/ C C | D D G,2- |$ G,2 G2- | G F/=E/ D G | %45
w: grant re-|lief.|Pi- ty would|help,|pi- ty would|help what love hath|al- most slain,|_ Pi-|- ty would help what|
 E E F F |$ B, B, A, G, | ^F,2 G,2 | D2 D2 | D2 D2 |$ G,4 | G3 F/=E/ | D4 | z D D D |$ %54
w: love hath al- most|slain, And salve the|wound that|fes- ter'd|this dis-|dain.|Pi- ty would|help,|pi- ty would|
 E3/2 D/ C C | D D G,2- | G,2 G2- |$ G F/=E/ D G | E E F F | B, B, A, G, |$ ^F,2 G,2 | D2 D2 | %62
w: help what love hath|al- most slain,|_ Pi-|- ty would help what|love hath al- most|slain, And salve the|wound that|fes- ter'd|
 D2 D2 | G,4- |$ G,4 |] %65
w: this dis-|dain.|_


